src/lib/packages/icons/src/assets/line/apple.svg

<svg width="24" height="24" viewBox="0 0 24 24" fill="none" xmlns="http://www.w3.org/2000/svg">
<path d="M19.32 15.0298C17.33 14.0898 17.28 12.3798 17.29 12.0498V12.0198C17.29 10.8198 17.8 9.93981 18.92 9.24981C19.1 9.13981 19.22 8.96982 19.26 8.75982C19.3 8.55982 19.26 8.3498 19.14 8.1798C18.26 6.9098 16.94 6.19982 15.21 6.06982C15.04 6.05982 14.87 6.0698 14.69 6.0798C14.75 6.0198 14.81 5.96981 14.87 5.90981C16.16 4.37981 16.05 2.93982 16.01 2.44982C15.98 2.03982 15.62 1.72982 15.22 1.75982C14.07 1.82982 12.76 2.48981 11.97 3.40981C11.13 4.35981 10.73 5.46981 10.76 6.62981C10.12 6.39981 9.31997 6.10979 8.55997 6.10979C5.90997 6.14979 3.22998 8.2598 3.22998 12.2098C3.22998 13.3398 3.43998 14.5198 3.84998 15.7198C4.34998 17.1698 6.31997 21.2598 8.77997 21.2598C8.79997 21.2598 8.82998 21.2598 8.84998 21.2598C9.43998 21.2498 9.91997 21.0598 10.38 20.8798C10.84 20.6998 11.28 20.5398 11.85 20.5398C12.36 20.5398 12.75 20.6898 13.2 20.8698C13.67 21.0498 14.21 21.2598 14.91 21.2598C17.42 21.2198 19.22 17.4098 19.7 15.9498C19.82 15.5898 19.65 15.1998 19.31 15.0398L19.32 15.0298ZM13.11 4.38982C13.45 3.99982 13.96 3.64982 14.48 3.44982C14.4 3.86982 14.19 4.3798 13.73 4.9298C13.39 5.3298 12.9 5.7698 12.3 5.9598C12.4 5.4098 12.68 4.87982 13.11 4.38982ZM14.91 19.7498C14.51 19.7498 14.18 19.6198 13.76 19.4598C13.25 19.2598 12.66 19.0298 11.87 19.0298C11.03 19.0298 10.38 19.2798 9.86996 19.4698C9.48996 19.6098 9.16996 19.7398 8.82996 19.7498C8.82996 19.7498 8.80996 19.7498 8.79996 19.7498C7.60996 19.7498 5.92998 17.0798 5.28998 15.2298C4.93998 14.1898 4.75998 13.1698 4.75998 12.2098C4.75998 9.0898 6.75998 7.63979 8.59998 7.60979C9.07998 7.60979 9.71997 7.8398 10.28 8.0498C10.82 8.2498 11.25 8.3998 11.64 8.3998C11.98 8.3998 12.35 8.25982 12.86 8.06982C13.53 7.81982 14.37 7.49981 15.11 7.55981C16.09 7.63981 16.86 7.93981 17.44 8.46981C16.35 9.37981 15.8 10.5698 15.8 11.9998C15.79 12.4598 15.85 14.6598 18.08 16.0498C17.4 17.7198 16.05 19.7298 14.92 19.7498H14.91Z" fill="currentColor"/>
</svg>

<svg xmlns="http://www.w3.org/2000/svg" width="24" height="24" fill="none"><path fill="currentColor" d="M19.32 15.03c-1.99-.94-2.04-2.65-2.03-2.98v-.03c0-1.2.51-2.08 1.63-2.77.18-.11.3-.28.34-.49.04-.2 0-.41-.12-.58-.88-1.27-2.2-1.98-3.93-2.11-.17-.01-.34 0-.52.01.06-.06.12-.11.18-.17 1.29-1.53 1.18-2.97 1.14-3.46a.746.746 0 0 0-.79-.69c-1.15.07-2.46.73-3.25 1.65-.84.95-1.24 2.06-1.21 3.22-.64-.23-1.44-.52-2.2-.52-2.65.04-5.33 2.15-5.33 6.1 0 1.13.21 2.31.62 3.51.5 1.45 2.47 5.54 4.93 5.54h.07c.59-.01 1.07-.2 1.53-.38.46-.18.9-.34 1.47-.34.51 0 .9.15 1.35.33.47.18 1.01.39 1.71.39 2.51-.04 4.31-3.85 4.79-5.31a.745.745 0 0 0-.39-.91l.01-.01ZM13.11 4.39c.34-.39.85-.74 1.37-.94-.08.42-.29.93-.75 1.48-.34.4-.83.84-1.43 1.03.1-.55.38-1.08.81-1.57Zm1.8 15.36c-.4 0-.73-.13-1.15-.29-.51-.2-1.1-.43-1.89-.43-.84 0-1.49.25-2 .44-.38.14-.7.27-1.04.28H8.8c-1.19 0-2.87-2.67-3.51-4.52-.35-1.04-.53-2.06-.53-3.02 0-3.12 2-4.57 3.84-4.6.48 0 1.12.23 1.68.44.54.2.97.35 1.36.35.34 0 .71-.14 1.22-.33.67-.25 1.51-.57 2.25-.51.98.08 1.75.38 2.33.91-1.09.91-1.64 2.1-1.64 3.53-.01.46.05 2.66 2.28 4.05-.68 1.67-2.03 3.68-3.16 3.7h-.01Z"/></svg>
